X:1
T:Csákány, buzogány
C:Hungarian folk song
Z:Public Domain
L:1/4
M:2/4
K:C
V:1 treble nm="Voice"
%%MIDI program 52
V:1
 C C | B,/D/ C | E E | D/F/ E | G/G/ A/G/ | E C | D D | D/C/ B,/C/ | D E | C C |] %10
w: Csá- kány,|bu- zo- gány,|Húzd rá,|te, ci gány,|Ha te hú- zod,|én meg|já- rom|Ber- zen- ce- i|nagy kocs-|má- ban.|

